icon-themes/sifr_svg/cmd/sc_tabledialog.svg

<svg viewBox="0 0 16 16" xmlns="http://www.w3.org/2000/svg"><path d="m1 0v15h10.400391c-.964522 0-2.1146341-.335576-3.0937504-1.279297l-.3066406-.294922v-.425781h-1v-2h4v-3h2.419922.580078v.65625c.698872.864814 1 1.825928 1 2.744141v1.185547l1 1v-13.585938zm2 2h3v2h-3zm4 0h3v2h-3zm4 0h3v2h-3zm-8 3h3v2h-3zm4 0h3v2h-3zm4 0h3v2h-3zm-8 3h3v2h-3zm4 0h3v2h-3zm5 1v1c1.560655 1.623957-.566483 3.497742-2 2h-1v1c.8.77108 1.635355 1 2.400391 1h1.599609l2 2h1v-1l-2-2v-1.599609c0-.88237-.214695-1.600391-1-2.400391zm-9 2h3v2h-3z" fill="#555753"/></svg>

<svg xmlns="http://www.w3.org/2000/svg" viewBox="0 0 16 16">
  <path
     style="fill:#555753"
     d="M 1 0 L 1 15 L 11.400391 15 C 10.435869 15 9.2857569 14.664424 8.3066406 13.720703 L 8 13.425781 L 8 13 L 7 13 L 7 11 L 11 11 L 11 8 L 13.419922 8 L 14 8 L 14 8.65625 C 14.698872 9.521064 15 10.482178 15 11.400391 L 15 12.585938 L 16 13.585938 L 16 0 L 1 0 z M 3 2 L 6 2 L 6 4 L 3 4 L 3 2 z M 7 2 L 10 2 L 10 4 L 7 4 L 7 2 z M 11 2 L 14 2 L 14 4 L 11 4 L 11 2 z M 3 5 L 6 5 L 6 7 L 3 7 L 3 5 z M 7 5 L 10 5 L 10 7 L 7 7 L 7 5 z M 11 5 L 14 5 L 14 7 L 11 7 L 11 5 z M 3 8 L 6 8 L 6 10 L 3 10 L 3 8 z M 7 8 L 10 8 L 10 10 L 7 10 L 7 8 z M 12 9 L 12 10 C 13.560655 11.623957 11.433517 13.497742 10 12 L 9 12 L 9 13 C 9.8 13.77108 10.635355 14 11.400391 14 L 13 14 L 15 16 L 16 16 L 16 15 L 14 13 L 14 11.400391 C 14 10.518021 13.785305 9.8 13 9 L 12 9 z M 3 11 L 6 11 L 6 13 L 3 13 L 3 11 z "
     />
</svg>
